202404-ahaslides-april/assets/images/aha.svg

<svg width="28" height="28" viewBox="0 0 28 28" fill="none" xmlns="http://www.w3.org/2000/svg">
<rect x="0.5" y="0.5" width="27" height="27" rx="13.5" fill="white"/>
<path d="M16.633 10.5231L19.194 7.85982C17.8021 6.50775 15.9515 5.65998 13.9121 5.60001V9.6126C13.9305 9.6126 13.9488 9.6126 13.9645 9.6126C14.9633 9.60987 15.886 9.95062 16.633 10.5231Z" fill="#9A72EF"/>
<path d="M13.443 9.62078V5.60001C9.1677 5.72813 5.7233 9.31002 5.6001 13.756H9.4639C9.58186 11.5289 11.2988 9.74072 13.443 9.62078Z" fill="#348EF6"/>
<path d="M18.4393 13.7561H21.7552C21.6949 11.6053 20.8614 9.65624 19.5271 8.20331L16.9976 10.8338C17.7813 11.5753 18.3135 12.603 18.4393 13.7561Z" fill="#E45E67"/>
<path d="M9.46128 14.293C9.46128 14.2767 9.46128 14.2603 9.46128 14.244H5.6001C5.7233 18.69 9.1677 22.2719 13.443 22.4V18.9462C11.2018 18.6763 9.46128 16.6973 9.46128 14.293Z" fill="#33C173"/>
<path d="M16.46 10.703L16.633 10.523C15.886 9.9506 14.9633 9.61258 13.9645 9.61258C13.9462 9.61258 13.9278 9.61258 13.9121 9.61258V9.61803C14.8872 9.67528 15.7732 10.0733 16.46 10.703Z" fill="#7B55CC"/>
<path d="M17.8911 13.756H18.439C18.3131 12.603 17.781 11.5753 16.9973 10.8338L16.7954 11.0437C17.4298 11.7688 17.8361 12.7147 17.8911 13.756Z" fill="#C95058"/>
<path d="M9.46405 14.244C9.46143 14.2603 9.46143 14.2767 9.46143 14.293C9.46143 16.6946 11.202 18.6763 13.4432 18.9435V18.3792C11.299 18.2593 9.58201 16.4738 9.46405 14.244Z" fill="#0FA656"/>
<path d="M18.4655 14.244H18.1431H17.8941C17.8784 14.5302 17.8364 14.8055 17.7735 15.0754C17.6425 15.4815 17.5717 15.915 17.5717 16.3675C17.5717 16.5883 17.5874 16.8036 17.6215 17.0135L17.6241 17.0326C17.6529 17.2507 17.687 17.4606 17.7657 17.6677L17.9282 18.1039C17.9334 18.2538 17.8679 18.3819 17.7054 18.3819H16.1693H15.4432C14.8219 18.3819 14.4707 18.4065 13.9517 18.3901C13.9359 18.3901 13.9202 18.3901 13.9045 18.3901V18.8944V18.9326V18.968H13.9019V18.9789V22.3973C13.97 22.3973 14.0329 22.3973 14.1011 22.3973C14.6673 22.3973 16.6726 22.1737 17.6503 21.9529C17.978 21.8739 18.3397 21.8657 18.6674 21.9529C19.7919 22.2719 20.9034 22.3945 22.1196 22.3945C22.3661 22.3945 22.4788 22.1001 22.3398 21.942C22.0279 21.5877 21.8234 21.3232 21.7527 20.609L21.7579 14.2467H18.4655" fill="#FAB63A"/>
<path d="M18.3947 15.0835C18.3974 15.0726 18.3974 15.0617 18.4 15.0508C18.4079 15.0045 18.4131 14.9582 18.4183 14.9145C18.4183 14.9118 18.4183 14.9064 18.421 14.9036C18.4314 14.811 18.4419 14.7155 18.4472 14.6201C18.4472 14.6174 18.4472 14.6147 18.4472 14.6147C18.4524 14.5166 18.4577 14.4184 18.4577 14.3203C18.4577 14.3094 18.4577 14.3012 18.4577 14.2903C18.4577 14.2739 18.4577 14.2576 18.4577 14.244H18.1431H18.1326H17.8967C17.8836 14.492 17.8495 14.7346 17.7997 14.9691C17.7918 15.0045 17.784 15.0399 17.7761 15.0754C17.6451 15.4815 17.5743 15.915 17.5743 16.3675C17.5743 16.5883 17.59 16.8036 17.6241 17.0135L17.6267 17.0326C17.6398 17.1253 17.6529 17.2152 17.6686 17.3025C17.6975 17.4279 17.7316 17.5505 17.7683 17.6705L17.8915 18.0003C17.9019 18.0221 17.9098 18.0439 17.9203 18.0685C17.9308 18.093 17.936 18.1203 17.936 18.1502C17.936 18.2566 17.8652 18.3465 17.7709 18.371C17.7709 18.3738 17.7709 18.3765 17.7709 18.3792H13.9019V18.9762H18.2742C18.5546 18.9762 18.7827 18.739 18.7827 18.4474C18.7827 18.4256 18.7801 18.4038 18.7775 18.3819V18.3792C18.7696 18.3165 18.7512 18.2565 18.725 18.202C18.7119 18.1802 18.6988 18.1611 18.6857 18.1393C18.6726 18.1175 18.6595 18.0957 18.649 18.0739C18.2951 17.4415 18.1667 16.7028 18.2558 15.9777L18.3187 15.4788C18.3292 15.4352 18.3397 15.3943 18.3502 15.3507C18.3528 15.3452 18.3528 15.3371 18.3554 15.3316C18.3659 15.288 18.3738 15.2444 18.3816 15.2008L18.3947 15.0835Z" fill="#F09D3B"/>
<rect x="0.5" y="0.5" width="27" height="27" rx="13.5" stroke="#DDECFF"/>
</svg>

<svg xmlns="http://www.w3.org/2000/svg" width="28" height="28" fill="none" viewBox="0 0 28 28">
  <rect width="27" height="27" x=".5" y=".5" fill="#fff" rx="13.5"/>
  <path fill="#9A72EF" d="m16.633 10.523 2.561-2.663c-1.392-1.352-3.242-2.2-5.282-2.26v4.013h.052a4.352 4.352 0 0 1 2.669.91Z"/>
  <path fill="#348EF6" d="M13.443 9.62V5.6c-4.275.128-7.72 3.71-7.843 8.156h3.864c.118-2.227 1.835-4.015 3.979-4.135Z"/>
  <path fill="#E45E67" d="M18.44 13.756h3.315a8.54 8.54 0 0 0-2.228-5.553l-2.53 2.63a4.727 4.727 0 0 1 1.442 2.923Z"/>
  <path fill="#33C173" d="M9.461 14.293v-.049h-3.86c.122 4.446 3.567 8.028 7.842 8.156v-3.454c-2.241-.27-3.982-2.249-3.982-4.653Z"/>
  <path fill="#7B55CC" d="m16.46 10.703.173-.18a4.37 4.37 0 0 0-2.668-.91h-.053v.005a4.116 4.116 0 0 1 2.548 1.085Z"/>
  <path fill="#C95058" d="M17.891 13.756h.548a4.728 4.728 0 0 0-1.442-2.922l-.202.21a4.472 4.472 0 0 1 1.096 2.712Z"/>
  <path fill="#0FA656" d="M9.464 14.244c-.003.016-.003.033-.003.049 0 2.402 1.741 4.383 3.982 4.65v-.564c-2.144-.12-3.861-1.905-3.979-4.135Z"/>
  <path fill="#FAB63A" d="M18.465 14.244h-.571a4.805 4.805 0 0 1-.12.831 4.198 4.198 0 0 0-.152 1.939l.002.019c.029.218.063.428.142.635l.162.436c.005.15-.06.278-.223.278h-2.262c-.621 0-.972.024-1.491.008h-.047v.578h-.003v3.43h.2c.565 0 2.57-.224 3.548-.445.328-.08.69-.087 1.017 0 1.125.319 2.236.442 3.453.442.246 0 .359-.295.22-.453-.312-.354-.517-.619-.587-1.333l.005-6.362h-3.293"/>
  <path fill="#F09D3B" d="M18.395 15.084c.002-.011.002-.022.005-.033.008-.046.013-.093.018-.136 0-.003 0-.009.003-.011.01-.093.02-.188.026-.284v-.005c.005-.098.01-.197.01-.295v-.076h-.56a4.68 4.68 0 0 1-.097.725l-.024.106a4.198 4.198 0 0 0-.152 1.939l.003.019c.013.092.026.182.042.27.029.125.063.247.1.367l.123.33.028.069a.227.227 0 0 1-.15.302v.008h-3.868v.597h4.372a.52.52 0 0 0 .509-.529c0-.021-.003-.043-.006-.065v-.003a.576.576 0 0 0-.052-.177l-.04-.063a3.436 3.436 0 0 1-.43-2.162l.064-.498.031-.128c.003-.006.003-.014.005-.02.01-.043.019-.087.027-.13l.013-.117Z"/>
  <rect width="27" height="27" x=".5" y=".5" stroke="#DDECFF" rx="13.5"/>
</svg>
